public/icons/wind.svg

<?xml version="1.0" ?>
<svg xmlns="http://www.w3.org/2000/svg" width="100" height="100" viewBox="0 0 100 100">
  <path d="M65.999,52L65.999,52h-3c-1.105,0 -2,-0.895 -2,-1.999s0.895,-2 2,-2h3c1.104,0 2,-0.896 2,-1.999c0,-1.105 -0.896,-2 -2,-2c-1.105,0 -2,-0.896 -2,-2s0.895,-2 2,-2c0.137,0 0.271,0.014 0.402,0.041c3.121,0.211 5.596,2.783 5.596,5.959C71.997,49.314 69.312,52 65.999,52zM55.999,48.001h-2h-6.998H34.002c-1.104,0 -1.999,0.896 -1.999,2S32.898,52 34.002,52h2h3.999h3h4h3h3.998h2c3.314,0 6,2.687 6,6c0,3.176 -2.475,5.748 -5.596,5.959C56.272,63.986 56.138,64 55.999,64c-1.104,0 -2,-0.896 -2,-2c0,-1.105 0.896,-2 2,-2c1.105,0 2,-0.896 2,-2s-0.895,-2 -2,-2h-2h-3.998h-3h-4h-3h-3.999h-2c-3.313,0 -5.999,-2.686 -5.999,-5.999c0,-3.175 2.475,-5.747 5.596,-5.959c0.131,-0.026 0.266,-0.04 0.403,-0.04l0,0h12.999h6.998h2c1.105,0 2,-0.896 2,-2s-0.895,-2 -2,-2c-1.104,0 -2,-0.895 -2,-2c0,-1.104 0.896,-2 2,-2c0.139,0 0.273,0.015 0.404,0.041c3.121,0.211 5.596,2.783 5.596,5.959C61.999,45.314 59.313,48.001 55.999,48.001z" fill="#FF000000"/>
</svg>

<svg
    xmlns="http://www.w3.org/2000/svg"
    viewBox="0 0 100 100"
    id="vector">
    <path
        id="path"
        d="M 65.999 52 L 65.999 52 L 62.999 52 C 61.894 52 60.999 51.105 60.999 50.001 C 60.999 48.897 61.894 48.001 62.999 48.001 L 65.999 48.001 C 67.103 48.001 67.999 47.105 67.999 46.002 C 67.999 44.897 67.103 44.002 65.999 44.002 C 64.894 44.002 63.999 43.106 63.999 42.002 C 63.999 40.898 64.894 40.002 65.999 40.002 C 66.136 40.002 66.27 40.016 66.401 40.043 C 69.522 40.254 71.997 42.826 71.997 46.002 C 71.997 49.314 69.312 52 65.999 52 Z M 55.999 48.001 L 53.999 48.001 L 47.001 48.001 L 34.002 48.001 C 32.898 48.001 32.003 48.897 32.003 50.001 C 32.003 51.105 32.898 52 34.002 52 L 36.002 52 L 40.001 52 L 43.001 52 L 47.001 52 L 50.001 52 L 53.999 52 L 55.999 52 C 59.313 52 61.999 54.687 61.999 58 C 61.999 61.176 59.524 63.748 56.403 63.959 C 56.272 63.986 56.138 64 55.999 64 C 54.895 64 53.999 63.104 53.999 62 C 53.999 60.895 54.895 60 55.999 60 C 57.104 60 57.999 59.104 57.999 58 C 57.999 56.896 57.104 56 55.999 56 L 53.999 56 L 50.001 56 L 47.001 56 L 43.001 56 L 40.001 56 L 36.002 56 L 34.002 56 C 30.689 56 28.003 53.314 28.003 50.001 C 28.003 46.826 30.478 44.254 33.599 44.042 C 33.73 44.016 33.865 44.002 34.002 44.002 L 34.002 44.002 L 47.001 44.002 L 53.999 44.002 L 55.999 44.002 C 57.104 44.002 57.999 43.106 57.999 42.002 C 57.999 40.898 57.104 40.002 55.999 40.002 C 54.895 40.002 53.999 39.107 53.999 38.002 C 53.999 36.898 54.895 36.002 55.999 36.002 C 56.138 36.002 56.272 36.017 56.403 36.043 C 59.524 36.254 61.999 38.826 61.999 42.002 C 61.999 45.314 59.313 48.001 55.999 48.001 Z"
        fill="#000000"
        fill-rule="evenodd"/>
</svg>
